X:1
T:Es sout ein meiskin
T:Es sout ein meiskin
T:(Colijn) Sampson
C:(Colijn) Sampson
%%score [ 1 [ 2 3 4 ] ]
L:1/8
Q:1/4=120
M:2/2
K:F
V:1 treble nm="Superius" snm="S"
V:2 treble-8 nm="Tenor 1" snm="T 1"
V:3 treble-8 nm="Tenor 2" snm="T 2"
V:4 treble-8 nm="Tenor 3" snm="T 3"
V:1
 z8 | c4 c2 c2 | A2 F2 c2 c2 | F4 F2 F2 | E2 C2 F3 E | D4 C4 | F6 G2 | A2 c2 c2 d2- | dc c4 B2 | %9
w: |Es sout ein|meis- kin ha- len|wyn, 'sna- vens|al so spa- *|* de,|sy hat|ein so wit hemb-|* * de- kin|
 c8 | z8 | z8 | z8 | z8 | z8 | F4 G2 G2 | A3 B c2 d2 | d2 c3 BAG | F2 A2 G4 | F2 c3 B A2- | %20
w: aen,||||||daer- duer sach|ick _ _ die|lu- ste- * * *|ly- ke mae-|ne, lu- ste- ly-|
 A2 GF E2 FE | DC F4 E2 | F8- | F8 | z8 | z2 c2 d2 c2 | A2 F2 B2 A2 | F2 A2 A3 G | F2 E2 D4 | %29
w: * * * ke mae- *||ne,|_||sy sach al-|hier, sy sach al-|daer, sy meint, sie|war al- lei-|
 C4 z4 | z8 | z2 E2 F2 E2 | D2 C2 C2 B,2 | C4 z4 | z8 | z8 | z4 z2 F2 | G4 G4 | A3 B c2 d2- | %39
w: ne,||sy meint, sy|war al- lei- *|ne,|||sy|hat ein|so _ schoen zwart|
 dc c4 B2 | c4 z2 F2 |[M:2/4] F3 G |: A2 F2 |[M:2/2] c3 B A2 G2 | F2 D2 E2 A2- | AFGA BAGF | %46
w: _ _ plaets- kin|staen al-|tuis- sen|huer snee-|wit- * * te|bei- * * *||
 ED G2- GF F2- | F2 E2 F4 |1 z2 F2 F3 G :|2 F2 E2 F4- || F8 |] %51
w: |* * nen,|al- tuis- sen|* * nen.|_|
V:2
 z8 | z4 c4 | c2 c2 A2 F2 | c2 c2 F4 | z8 | z8 | z8 | z4 f2 f2 | f2 e2 d4 | c4 f2 g2 | a4 f2 a2- | %11
w: |Es|sout ein- meis- kin|ha- len wyn,||||'sna- vens|al so spa-|de, sy hat|ein so wit|
 a2 g2 g3 f | g2 G2 A2 FG | ABcd e2 f2 | d2 g2 e2 a2- | ag f4 e2 | f4 f2 f2- | f2 ed c2 d2- | %18
w: _ hemb- de- kin|aen, daer- duer sach _|_ _ _ _ ick die|lu- ste- ly- ke|_ _ mae- *|ne, die lu-|* ste- * ly- ke|
 dc f4 e2 | f8 | z8 | z4 z2 c2 | d2 c2 A3 G | F4 z4 | z2 c2 d2 c2 | A2 F2 B2 A2 | F4 G2 c2 | %27
w: _ _ mae- *|ne,||sy|sach al- hier, _|_|sy sach al-|hier, sy sach al-|daer, sy meint,|
 c2 F4 G2 |"^-natural" A2 c4 B2 | c2 e2 f3 e | d2 c2 c2 B2 | c4 z4 | z8 | z4 z2 a2 | a3 g f2 e2 | %35
w: sy war al-|lei- * *|ne, sy meint, sy|war al- lei- *|ne,||sy|meint, sy war al-|
 d4 c4 | z4 z2 c2 | d2 d2 e4 | f2 a4 g2 | f2 e2 d4 | c2 c2 c4- |[M:2/4] c2 d2 |: e2 c2 | %43
w: lei- ne,|sy|hat ein so|zwart plaets- *|* * kin|staen al- tuis-|* sen|huer snee-|
[M:2/2] c4 f4 | f4 e2 f2 | c4 d2 B2 | c2 d3 c AB | c4 c4 |1 z2 c2 c3 d :|2 c4 c4- || c8 |] %51
w: wit- te|bei- * *|||* nen,|al- tuis- sen|* nen.|_|
V:3
 z8 | z8 | z4 c4 | c2 c2 A2 F2 | c2 c2 F4 | z4 F2 F2 | F2 E2 D4 | C4 F4- | F4 G4 | A4 z2 c2 | %10
w: ||Es|sout ein meis- kin|ha- len wyn|'sna- vens|al so spa-|de, sy|_ hat|ein so|
 c2 d3 c c2- | c2 B2 c4 | z8 | c3 B AG F2- | F2 ED C2 D2- | DE F2 C4 | z8 | z8 | F4 G2 G2 | %19
w: wit hemb- * de|_ kin aen,||hemb- * * * *|* * * * de-|* * kin aen,|||daer- duer sach|
 A3 B c2 d2- | dc c3 BAG | F2 A2 G4 | F8 | z2 c2 d2 c2 | A2 F2 B2 A2 | F4 z4 | z4 z2 A2 | %27
w: ick die lu- ste-|* * ly- * * *|* ke mae-|ne,|sy sach al-|hier, sie sach al-|daer,|sy|
 A3 G F2 E2 | D2 C2 G4 | C4 z4 | z8 | z2 A2 A3 G | F2 E2 D4 | C4 z4 | z4 F4 | G2 G2 A3 B | %36
w: meint, sy war _|_ al- lei-|ne,||sy meint, sy|war al- lei-|ne,|sy|hat ein so _|
 c2 d3 c c2- | c2 B2 c4 | F3 G A2 B2- | B2 c2 G4- | G4 z4 |[M:2/4] z4 |: z2 F2 |[M:2/2] F6 G2 | %44
w: zwart plaets _ _|_ kin staen,|so _ zwart plaets-|* kin staen|_||al-|tuis- sen|
 A2 F2 c3 B | A2 G2 F3 G | A2 B3 A GF | G4 F4 |1 z8 :|2 G4 F4- || F8 |] %51
w: huer snee- wit- *|* te bei- *||* nen,||* nen.|_|
V:4
 c4 c2 c2 | A2 F2 c2 c2 | F4 F2 F2 | F2 E2 D4 | C4 z2 F2 | G4 A2 c2 | d2 c2 c2 B2 | c4 z4 | z8 | %9
w: Es sout ein|meis- kin ha- len|wyn, 'sna- vens|al so spa-|de sy|hat ein so|wit hemb- de- kin|aen||
 z8 | z4 F4 | G2 G2 A4 | G4 c2 c2 | A3 B c2 d2 | d2 c2 cBAG | F2 A2 G4 | F8 | z8 | z8 | c3 B AGFE | %20
w: |daar-|duer sach ick|die lu- ste-|ly- * ke, die|lu- ste- ly- * * *|* ke mae-|ne,|||lu- * * * * *|
 F2 ED C2 D2- | DE F2 C4 | z2 c2 d2 c2 | A2 F2 B2 A2 | F4 z4 | z8 |"^-natural" z8 | z8 | %28
w: ste- ly- * ke mae-|* * * ne,|sy sach al-|hier, sie sach al-|daer,||||
"^-natural" z8 | z2 A2 A2 G2 | F2 E2 D4 | C4 z4 | z4 F4 | G2 G2 A3 B | c2 d2 d2 c2- | c2 B2 c3 B | %36
w: |sy meint, sy|war al- lei-|ne,|sy|hat ein so _|schoen zwart plaets- kin|_ _ staen, _|
 AG F2 E2 A2 | G4 C4 | z8 | z8 | C4 F3 G |[M:2/4] A2 F2 |: c3 B |[M:2/2] A2 G2 F2 E2 | D4 C2 F2- | %45
w: _ _ _ _ plaets-|kin staen|||al- tuis- sen|huer snee-|wit- *|* te bei- *||
 F2 E2 D4 | C2 B,2 D4 | C4 z2 F2 |1 F3 G A2 F2 :|2 C4 F4- || F8 |] %51
w: ||nen, al-|tuis- sen huer snee-|* nen.|_|

